dist/svg/u1F5D1.svg

<?xml version="1.0" encoding="UTF-8"?><svg id="a" xmlns="http://www.w3.org/2000/svg" viewBox="0 0 40 40"><rect x="0" width="40" height="40" fill="none"/><g><path d="M6.242,11.317l.895,22.784c.064,1.619,1.395,2.899,3.015,2.899H30.183c1.62,0,2.951-1.28,3.015-2.899l.895-22.784H6.242Z" fill="#6b7683"/><path d="M6.424,15.97l.712,18.131c.064,1.619,1.395,2.899,3.015,2.899H30.183c1.62,0,2.951-1.28,3.015-2.899l.712-18.131H6.424Z" fill="#8a94a0"/><line x1="16.703" y1="20.518" x2="16.703" y2="28.911" fill="none" stroke="#4b596a" stroke-linecap="round" stroke-miterlimit="10" stroke-width="2.429"/><line x1="23.632" y1="20.518" x2="23.632" y2="28.911" fill="none" stroke="#4b596a" stroke-linecap="round" stroke-miterlimit="10" stroke-width="2.429"/><path d="M13.344,7.936v-1.584c0-1.852,1.501-3.353,3.353-3.353h6.947c1.852,0,3.353,1.501,3.353,3.353v1.584" fill="none" stroke="#4b596a" stroke-linecap="round" stroke-miterlimit="10" stroke-width="2.429"/><rect x="4.075" y="7.93" width="31.85" height="5.029" rx="1.509" ry="1.509" fill="#8a94a0"/></g></svg>

<svg id="Layer_1" data-name="Layer 1" xmlns="http://www.w3.org/2000/svg" viewBox="0 0 40 40"><defs><style>.cls-1,.cls-4{fill:none;}.cls-2{fill:#6b7683;}.cls-3{fill:#8a94a0;}.cls-4{stroke:#4b596a;stroke-linecap:round;stroke-miterlimit:10;stroke-width:2.429px;}</style></defs><rect class="cls-1" width="40" height="40"/><path class="cls-2" d="M6.242,11.317,7.137,34.1A3.017,3.017,0,0,0,10.152,37H30.183A3.018,3.018,0,0,0,33.2,34.1l.9-22.784Z"/><path class="cls-3" d="M6.424,15.97,7.137,34.1A3.017,3.017,0,0,0,10.152,37H30.183A3.018,3.018,0,0,0,33.2,34.1L33.91,15.97Z"/><line class="cls-4" x1="16.703" y1="20.518" x2="16.703" y2="28.911"/><line class="cls-4" x1="23.632" y1="20.518" x2="23.632" y2="28.911"/><path class="cls-4" d="M13.344,7.936V6.353A3.353,3.353,0,0,1,16.7,3h6.947A3.353,3.353,0,0,1,27,6.353V7.936"/><rect class="cls-3" x="4.075" y="7.93" width="31.85" height="5.029" rx="1.509"/></svg>
